X:1
T:St. Gregory, LM
T:Johann Balthasar König, 1738
T:St. Gregory, LM
T:Public Domain
C:Johann Balthasar K&#246;nig, 1738
Z:Public Domain
%%score ( 1 2 ) ( 3 4 )
L:1/8
M:4/4
K:Eb
V:1 treble 
V:2 treble 
V:3 bass 
V:4 bass 
V:1
 [GB]2 | [EG]2 [EB]2 [Ec]2 (EG) | (FE)(FD) [EG]2 [FB]2 | E2 [EG]2 [EA]2 [EG]2 | %4
 [B,F]2 E2 [DF]2 [FB]2 | [EG]2 [EB]2 [Ac]2 [Be]2 | (FE)(FD) [EG]2 [DB]2 | E2 [EG]2 [EA]2 [EG]2 | %8
 [EF]2 [DF]2 E2 |] %9
V:2
 x2 | x6 e2 | B2 A2 x4 | E2 x6 | x2 E2 x4 | x8 | B2 A2 x4 | E2 x6 | x4 E2 |] %9
V:3
 [E,B,]2 | (E,F,)(ED) [A,C]2 (G,E,) | (D,C,)(D,B,,) [E,B,]2 [D,B,]2 | %3
 (C,D,)(C,B,,) [A,,C]2 [E,B,]2 | [D,F,]2 [C,G,]2 [B,,B,]2 [D,B,]2 | (E,F,) [G,B,]2 [F,A,]2 (G,A,) | %6
 (D,C,)(D,B,,) [E,B,]2 [G,,B,]2 | (C,D,)(C,B,,) [A,,C]2 [E,B,]2 | [A,,C]2 (B,A,) [E,G,]2 |] %9
V:4
 x2 | B,2 G,2 x B,2 x | B,2 B,2 x4 | G,2 C2 x4 | x8 | B,2 x3 E,2 x | B,2 B,2 x4 | G,2 G,2 x4 | %8
 x2 B,,2 x2 |] %9

